assets/icons/fb.svg

<svg fill="none" height="25" viewBox="0 0 24 25" width="24" xmlns="http://www.w3.org/2000/svg"><path d="m24 12.2781c0-6.66897-5.3731-12.074975-12.0001-12.074975-6.62995.0015-12.00295176 5.406005-12.00295176 12.076475 0 6.0255 4.38900176 11.0205 10.12495176 11.9265v-8.4375h-3.04495v-3.489h3.04795v-2.66248c0-3.02549 1.7925-4.6965 4.533-4.6965 1.314 0 2.6865.23551 2.6865.23551v2.97h-1.5135c-1.4895 0-1.9545.93149-1.9545 1.88697v2.265h3.327l-.531 3.489h-2.7975v8.4375c5.736-.906 10.1251-5.901 10.1251-11.9265z" fill="#888"/></svg>

<svg width="24" height="25" viewBox="0 0 24 25" fill="none" xmlns="http://www.w3.org/2000/svg">
<path d="M24 12.2781C24 5.60913 18.6269 0.203125 11.9999 0.203125C5.36995 0.204625 -0.00305176 5.60913 -0.00305176 12.2796C-0.00305176 18.3051 4.38595 23.3001 10.1219 24.2061V15.7686H7.07695V12.2796H10.1249V9.61712C10.1249 6.59163 11.9174 4.92062 14.6579 4.92062C15.9719 4.92062 17.3444 5.15613 17.3444 5.15613V8.12613H15.8309C14.3414 8.12613 13.8764 9.05762 13.8764 10.0131V12.2781H17.2034L16.6724 15.7671H13.8749V24.2046C19.6109 23.2986 24 18.3036 24 12.2781Z" fill="#888888"/>
</svg>
